resources/icons/20px/phone-forward.svg

<svg width="20" height="20" viewBox="0 0 20 20" fill="none" xmlns="http://www.w3.org/2000/svg">
<path fill-rule="evenodd" clip-rule="evenodd" d="M19.8449 15.5101C19.765 15.4301 15.6392 13.0101 15.4994 12.9401C15.3595 12.8701 15.2296 12.8401 15.0998 12.8401C14.91 12.8401 14.6802 12.9701 14.3905 13.2401C14.1108 13.5101 13.2217 14.7301 12.962 15.0001C12.7022 15.2701 12.4825 15.4001 12.3126 15.4001C12.2327 15.4001 12.1228 15.3801 11.993 15.3301C11.8631 15.2801 10.5444 14.6001 7.79727 12.1801C5.05009 9.76014 4.69046 8.18016 4.67048 7.74017C4.67048 7.57017 4.80035 7.35017 5.07007 7.09018C5.34978 6.84018 5.63949 6.58018 5.95916 6.35019C6.27883 6.11019 6.56853 5.85019 6.83826 5.5702C7.10798 5.2902 7.23784 5.05021 7.23784 4.86021C7.23784 4.73021 7.20788 4.59021 7.13795 4.46021C7.06802 4.32022 4.57058 0.190272 4.48068 0.100274C4.29087 -0.079724 3.56162 0.000274941 3.192 0.200272C0.205068 1.82025 -0.0446759 4.00022 0.00527278 4.86021C0.0552215 5.7502 0.614647 10.4401 5.19994 14.7901C10.8941 20.2 14.85 19.99 15.1098 19.99C15.9789 19.99 18.6261 19.51 19.755 16.8C19.9148 16.42 20.0647 15.7301 19.8449 15.5101Z" fill="#111418"/>
<path fill-rule="evenodd" clip-rule="evenodd" d="M11 7H16.58L15.29 8.29C15.1 8.48 14.99 8.73 14.99 9C14.99 9.55 15.44 10 15.99 10C16.27 10 16.52 9.89 16.7 9.71L19.7 6.71C19.88 6.53 19.99 6.28 19.99 6C19.99 5.72 19.88 5.47 19.7 5.29L16.7 2.29C16.52 2.11 16.27 2 15.99 2C15.44 2 14.99 2.45 14.99 3C14.99 3.28 15.1 3.53 15.28 3.71L16.58 5H11C10.45 5 10 5.45 10 6C10 6.55 10.45 7 11 7Z" fill="#111418"/>
</svg>

<svg xmlns="http://www.w3.org/2000/svg" viewBox="0 0 20 20">
  <path d="M19.845 15.51c-.08-.08-4.206-2.5-4.346-2.57a.9.9 0 0 0-.4-.1c-.189 0-.419.13-.709.4-.28.27-1.168 1.49-1.428 1.76s-.48.4-.65.4c-.08 0-.19-.02-.319-.07-.13-.05-1.449-.73-4.196-3.15s-3.107-4-3.127-4.44c0-.17.13-.39.4-.65.28-.25.57-.51.89-.74q.476-.36.878-.78c.27-.28.4-.52.4-.71 0-.13-.03-.27-.1-.4C7.068 4.32 4.57.19 4.48.1c-.19-.18-.92-.1-1.289.1C.205 1.82-.045 4 .005 4.86c.05.89.61 5.58 5.195 9.93 5.694 5.41 9.65 5.2 9.91 5.2.869 0 3.516-.48 4.645-3.19.16-.38.31-1.07.09-1.29"/>
  <path d="M11 7h5.58l-1.29 1.29a1 1 0 0 0-.3.71 1.003 1.003 0 0 0 1.71.71l3-3c.18-.18.29-.43.29-.71s-.11-.53-.29-.71l-3-3a1.003 1.003 0 0 0-1.42 1.42L16.58 5H11c-.55 0-1 .45-1 1s.45 1 1 1"/>
</svg>
